X:1
T:O QUAM AMABILIS
T:Harm. M. Celminskis
T:O QUAM AMABILIS
C:Harm. M. Celminskis
%%score { ( 1 2 ) | ( 3 4 ) }
L:1/8
Q:1/4=60
M:4/4
K:G
V:1 treble nm="P1"
V:2 treble 
V:3 bass 
V:4 bass 
V:1
!p!"^Adagio" E2 |!<(! B3 B!<)! A2!>(! G2!>)! | F6 G2 |!<(! A4!<)! G4 |!>(! F4!>)! E2 G2 | %5
w: 1.|quam a- ma- bi-|lis es,|bo- ne|Je- su, quam|
w: 2.|ad- mi- ra- bi-|lis es,|bo- ne|Je- su, quam|
w: 3.|ve- ne- ra- bi-|lis es,|bo- ne|Je- su, sem-|
w: 4.|gi fi- de- li-|um da,|bo- ne|Je- su, sa-|
w: 5.|vi- tae ter- mi-|num da,|bo- ne|Je- su, pe-|
!<(! B3 B!<)! A2!>(! G2!>)! | F6!<(! G2!<)! | A4 G4 |!>(! F4!>)! E2 ||!mf!"^Refren" B2 | %10
w: 1. lec- ta- bi-|lis es,|pi- e|Je- su.|1.\-5.|
w: 2. no- ra- bi-|lis es,|pi- e|Je- su.||
w: 3. lau- da- bi-|lis es,|pi- e|Je- su.||
w: 4. tis es- ci-|tum, o|pi- e|Je- su.||
w: 5. ne gau- di-|um, o|pi- e|Je- su.||
 d2 e2 d2 c2 | B6 B2 | d2 e2 d2!>(! c2!>)! | B6 B2 |!<(! c4!<)! B4 | A4 G2 F2 | %16
w: cor- dis ju- bi-|lum, men-|tis so- la- ti-|um, o|1.\-5. ne|Je- su, o|
w: ||||||
w: ||||||
w: ||||||
w: ||||||
 G2 A2!>(! (G2 F2)!>)! | E6 x2 |] %18
w: bo- ne Je- *|su.|
w: ||
w: ||
w: ||
w: ||
V:2
 E2 | G3 G F2 E2 | ^D6 E2 | E4 (E2 ^C2) | ^D4 E2 E2 | F3 F F2 E2 | ^D6 E2 | E4 E4 | ^D4 E2 || E2 | %10
 A2 F2 G2 A2 | G6 G2 | A2 F2 G2 A2 | G6 G2 | A4 G4 | F4 E2 F2 | E2 E2 (E2 ^D2) | E6 x2 |] %18
V:3
 B,2 | B,3 D C2 B,2 | B,6 B,2 | A,4 B,4 | A,4 G,2 B,2 | B,3 B, C2 B,2 | B,6 B,2 | A,4 ^A,4 | %8
 B,2 A,2 G,2 || B,2 | D2 C2 B,2 D2 | D6 E2 | D2 C2 B,2 D2 | D6 E2 | D4 D4 | D2 C2 B,2 C2 | %16
 B,2 C2 B,2 A,2 | G,6 x2 |] %18
V:4
 E,2 | E,3 E, E,2 E,2 | B,,6 E,2 | C,4 B,,4 | B,,4 E,2 E,2 | D,3 D, ^D,2 E,2 | B,,6 E,2 | C,4 C,4 | %8
 B,,4 E,2 || G,2 | F,2 D,2 E,2 F,2 | G,6 E,2 | F,2 A,2 G,2 F,2 | G,6 E,2 | F,4 G,4 | D,4 E,2 A,2 | %16
 G,2 F,2 B,,4 | E,6 x2 |] %18

